app/images/icons/blog-google+.svg

<svg xmlns="http://www.w3.org/2000/svg" preserveAspectRatio="xMidYMid" width="18.03" height="11.41"><path d="M18.019 4.624v.055l-.011 1.442-.001.06h-1.991l-.015 1.931v.055h-1.558l.001-.055.014-1.931h-1.991l.001-.06.011-1.442v-.055h1.991l.015-1.936v-.055h1.558v.055l-.015 1.936h1.991zm-10.79 6.577a6.14 6.14 0 01-1.872.186c-1.118-.066-2.135-.417-3.036-1.081C1.159 9.451.428 8.31.12 6.9a5.155 5.155 0 01-.108-1.535 5.59 5.59 0 011.286-3.259A5.65 5.65 0 014.368.154c.313-.083.626-.132.944-.149.181-.005.363-.016.544-.016a5.356 5.356 0 012.698.74c.557.319.873.642 1.009.741-.569.559-1.116 1.108-1.674 1.656-.415-.357-.873-.685-1.667-.806a3.388 3.388 0 00-.487-.036c-1.594 0-2.93 1.153-3.285 2.663a3.15 3.15 0 00-.08 1.032 3.415 3.415 0 002.331 2.967 3.309 3.309 0 001.233.143c.599-.039 1.159-.198 1.666-.532.855-.582 1.131-1.492 1.133-1.717H5.678l.016-2.2.006-.093h5.364c.289 1.673.029 3.433-1.013 4.81-.72.949-1.679 1.547-2.822 1.844z" fill="#a1a1a1" fill-rule="evenodd"/></svg>

<svg xmlns="http://www.w3.org/2000/svg" xmlns:xlink="http://www.w3.org/1999/xlink" preserveAspectRatio="xMidYMid" width="18.03" height="11.41" viewBox="0 0 18.03 11.41">
  <defs>
    <style>
      .cls-1 {
        fill: #a1a1a1;
        fill-rule: evenodd;
      }
    </style>
  </defs>
  <path d="M18.019,4.624 L18.019,4.679 L18.008,6.121 L18.007,6.181 L17.947,6.181 L16.016,6.181 L16.001,8.112 L16.001,8.167 L15.946,8.167 L14.498,8.167 L14.443,8.167 L14.444,8.112 L14.458,6.181 L12.528,6.181 L12.467,6.181 L12.468,6.121 L12.479,4.679 L12.479,4.624 L12.540,4.624 L14.470,4.624 L14.485,2.688 L14.485,2.633 L14.540,2.633 L15.988,2.633 L16.043,2.633 L16.043,2.688 L16.028,4.624 L17.959,4.624 L18.019,4.624 ZM7.229,11.201 C6.722,11.332 6.207,11.396 5.689,11.396 C5.579,11.396 5.468,11.393 5.357,11.387 C4.239,11.321 3.222,10.970 2.321,10.306 C1.159,9.451 0.428,8.310 0.120,6.900 C0.009,6.390 -0.031,5.880 0.012,5.365 C0.092,4.147 0.517,3.055 1.298,2.106 C2.106,1.113 3.136,0.466 4.368,0.154 C4.681,0.071 4.994,0.022 5.312,0.005 C5.493,-0.000 5.675,-0.011 5.856,-0.011 C6.821,-0.000 7.724,0.241 8.554,0.729 C9.111,1.048 9.427,1.371 9.563,1.470 C8.994,2.029 8.447,2.578 7.889,3.126 C7.474,2.769 7.016,2.441 6.222,2.320 C6.057,2.296 5.894,2.284 5.735,2.284 C4.141,2.284 2.805,3.437 2.450,4.947 C2.365,5.287 2.341,5.633 2.370,5.979 C2.492,7.383 3.432,8.535 4.701,8.946 C5.025,9.048 5.360,9.096 5.697,9.096 C5.776,9.096 5.855,9.094 5.934,9.089 C6.533,9.050 7.093,8.891 7.600,8.557 C8.455,7.975 8.731,7.065 8.733,6.840 L5.678,6.840 C5.678,6.765 5.689,5.337 5.694,4.640 L5.700,4.547 L11.064,4.547 C11.353,6.220 11.093,7.980 10.051,9.357 C9.331,10.306 8.372,10.904 7.229,11.201 Z" class="cls-1"/>
</svg>
